X: 43
T: the Bright Love of My Heart   #2
R: air
%S: s:3 b:28(14+14)
M: 3/4
L: 1/8
B: O'Neill's 1850 #43
Q: "Gracefully"
O: J.O'Neill
Z: Norbert Paap, norbertp@bdu.uva.nl
N: Compacted via repeats and multiple endings [JC]
K: Gm
d>c \
|  (B2A2G2) | (F2D3C) | (B,3CDE) | (F2G2A2) |\
[1 (B2A2G2) | (d3cBA) | (G2A2G2) | F2D2 :|\
[2 B3(c d/=e/^f) | g4 (dc) | (B2G2) .G2 | G4 |]|\
(G>A) | (B3cd=e) | f2d2 f2 |
| (g3aba) | g2f2 (ga) | (b2a2g2) | (f2d2c2) | d2g2 {b2}a2 | g4 ||\
(b>a) | .g.b.a.g.f.e | d4 (dc) | (B2A2G2) | F2D2 (GA) | B3(c d/=e/^f) | g4 dc | (B2G2G2) | G4 |]
